X:1
T:Fie, nay, prithee John
T:Henry Purcell (1659?-1695)
%%score [ 1 2 3 ]
L:1/8
Q:1/4=60
M:4/4
K:A
V:1 treble nm="I"
V:2 treble nm="II"
V:3 treble nm="III"
V:1
 G3 c B G E2 | F3 A G E C2 | D3 F E C A,2 | D2 E2 A,4 |] %4
w: Fie, nay, pri- thee John,|Do not quar- rel man.|Let's be mer- ry and|drink a- bout.|
V:2
 A e e A G e e G | F d d F E c c E | D B B D C A A C | B,2 G2 A4 |] %4
w: You're a rogue, you cheat- ed me. I'll|prove be- fore this com- pa- ny, I|caren't a farth- ing, sir, for all you|are so stout.|
V:3
 e c A f d B G e | c A F d B G E c | A F D B G E C c | f2 e3/2 d/ c4 |] %4
w: Sir, you lie! I scorn your word or|an- y man that wears a sword. For|all your huff who cares a damn, and|who cares for you?|

